tools/download-figma-icons/icons/solid/bus.svg

<svg width="24" height="24" viewBox="0 0 24 24" fill="none" xmlns="http://www.w3.org/2000/svg">
<path d="M23.9925 12.7575C23.9925 12.69 23.985 12.63 23.97 12.57L22.6425 7.1475C22.4775 6.4725 21.8775 6 21.1875 6H0.75C0.3375 6 0 6.3375 0 6.75V16.5225C0 16.9425 0.3375 17.2725 0.75 17.2725H2.3775C2.6925 18.135 3.525 18.75 4.4925 18.75C5.46 18.75 6.285 18.135 6.6 17.2725H16.6275C16.9425 18.135 17.775 18.75 18.7425 18.75C19.71 18.75 20.535 18.135 20.85 17.2725H22.515C22.9125 17.2725 23.2875 17.1225 23.565 16.8375C23.85 16.5525 24 16.1775 24 15.78L23.9925 12.7575ZM4.4925 17.25C4.0725 17.25 3.7425 16.9125 3.7425 16.5C3.7425 16.1475 3.9825 15.8475 4.32 15.7725H4.665C4.995 15.8475 5.2425 16.1475 5.2425 16.5C5.2425 16.9125 4.905 17.25 4.4925 17.25ZM17.2425 12.75C17.2425 13.1625 16.905 13.5 16.4925 13.5H2.9925C2.5725 13.5 2.2425 13.1625 2.2425 12.75V9C2.2425 8.5875 2.5725 8.25 2.9925 8.25H16.4925C16.905 8.25 17.2425 8.5875 17.2425 9V12.75ZM18.7425 17.25C18.3225 17.25 17.9925 16.9125 17.9925 16.5C17.9925 16.1475 18.2325 15.8475 18.57 15.7725H18.915C19.245 15.8475 19.4925 16.1475 19.4925 16.5C19.4925 16.9125 19.155 17.25 18.7425 17.25ZM19.4925 11.97V7.5H21.1875L22.2825 11.9925L19.4925 11.97ZM12.7425 12H15.7425V9.75H12.7425V12ZM8.2425 12H11.2425V9.75H8.2425V12ZM3.7425 12H6.7425V9.75H3.7425V12Z" fill="black"/>
</svg>

<svg xmlns="http://www.w3.org/2000/svg" width="24" height="24" fill="none" viewBox="0 0 24 24"><path fill="currentColor" d="M23.993 12.758a.8.8 0 0 0-.023-.188l-1.328-5.422A1.5 1.5 0 0 0 21.188 6H.75a.75.75 0 0 0-.75.75v9.773c0 .42.338.75.75.75h1.628a2.246 2.246 0 0 0 4.223 0h10.027a2.246 2.246 0 0 0 4.223 0h1.664c.398 0 .773-.15 1.05-.436A1.48 1.48 0 0 0 24 15.78zm-19.5 4.492a.747.747 0 0 1-.75-.75.74.74 0 0 1 .577-.727h.345a.748.748 0 0 1-.173 1.477m12.75-4.5c0 .412-.338.75-.75.75h-13.5a.747.747 0 0 1-.75-.75V9c0-.412.33-.75.75-.75h13.5c.412 0 .75.338.75.75zm1.5 4.5a.747.747 0 0 1-.75-.75.74.74 0 0 1 .577-.727h.345a.748.748 0 0 1-.172 1.477m.75-5.28V7.5h1.695l1.095 4.493zm-6.75.03h3V9.75h-3zm-4.5 0h3V9.75h-3zm-4.5 0h3V9.75h-3z"/></svg>
